X: 31177
T: Paddy Fahey's
R: reel
M: 4/4
K: Gmajor
_BB=Bd g2 dc|BG ~G2 Bcdc|A=FFF Adcd|(3Bcd A=F DEFA|
_BB=Bd g2 dc|BG ~G2 Bcdc|B=FFF Adcd|(3Bcd AF ~G3 A||
_BABd g2 dc|BG ~G2 Bcdc|A=FFF Adcd|(3Bcd A=F DEFA|
_BB=Bd g2 dc|BG ~G2 Bcdc|B=FFF Adcd|(3Bcd AF ~G3 B||
dggf g3 a|(3bag dg g2 dc|BDGB ADFD|(3EFG AG FD D2|
dggf ggga|(3_bag gf dgdc|BDGB ADFD|(3EFG AF G2 z B||
dggf g3 a|(3bag dg g2 dc|BDGB ADFD|(3EFG AG FD D2|
dggf ggga|(3_bag gf dgdc|BDGB ADFD|(3EFG AF G2 z A||

